icons/1_Primary/fileee.svg

<svg xmlns="http://www.w3.org/2000/svg" width="1024" height="1024" fill="none">
   <g clip-path="url(#a)">
      <path fill="#96DFD3" d="M512 1024c282.77 0 512-229.23 512-512S794.77 0 512 0 0 229.23 0 512s229.23 512 512 512Z"/>
      <path fill="#fff" d="M279.5 279.5v465h465v-465h-465Zm287.33 61.23 35.46 24.8-102 18-7.94-29.64 74.48-13.16Zm-50.57 342.64-97.94-138.53 34.39-4.55 92.61 130.88-29.06 12.2ZM490.2 535.44l30.42-4 23.64 134-42.33-63.74-11.73-66.26Zm-73.72 6.88 13.85-33.52 53.48-9.69-19.38-109.46 24.8-35.46 25 139.69 53.48-9.69 5.29 30.13-156.52 28Zm160.91-141.24L573 376.57l29.74-7.94 4.75 27.13-30.1 5.32Z"/>
   </g>
   <defs>
      <clipPath id="a">
         <path fill="#fff" d="M0 0h1024v1024H0z"/>
      </clipPath>
   </defs>
</svg>

<svg width="1024" height="1024" viewBox="0 0 1024 1024" fill="none" xmlns="http://www.w3.org/2000/svg">
<g clip-path="url(#clip0_2_2190)">
<path d="M512 1024C794.77 1024 1024 794.77 1024 512C1024 229.23 794.77 0 512 0C229.23 0 0 229.23 0 512C0 794.77 229.23 1024 512 1024Z" fill="#96DFD3"/>
<path d="M279.5 279.5V744.5H744.5V279.5H279.5ZM566.83 340.73L602.29 365.53L500.29 383.53L492.35 353.89L566.83 340.73ZM516.26 683.37L418.32 544.84L452.71 540.29L545.32 671.17L516.26 683.37ZM490.2 535.44L520.62 531.44L544.26 665.44L501.93 601.7L490.2 535.44ZM416.48 542.32L430.33 508.8L483.81 499.11L464.43 389.65L489.23 354.19L514.23 493.88L567.71 484.19L573 514.32L416.48 542.32ZM577.39 401.08L573 376.57L602.74 368.63L607.49 395.76L577.39 401.08Z" fill="white"/>
</g>
<defs>
<clipPath id="clip0_2_2190">
<rect width="1024" height="1024" fill="white"/>
</clipPath>
</defs>
</svg>
